img/stars.svg

<svg fill="none" height="800" viewBox="0 0 24 24" width="800" xmlns="http://www.w3.org/2000/svg">
    <g fill="#ffffff">
        <path d="m10.0802 7.89712c1.0766-1.93141 1.615-2.89712 2.4198-2.89712s1.3432.96571 2.4198 2.89712l.2786.49968c.3059.54884.4589.82327.6974 1.00434.2385.18106.5356.24828 1.1297.3827l.5409.12238c2.0907.47308 3.1361.70958 3.3848 1.50938.2487.7997-.464 1.6331-1.8893 3.2998l-.3687.4312c-.4051.4737-.6076.7105-.6987 1.0035-.0911.2929-.0605.6089.0008 1.2408l.0557.5753c.2155 2.2238.3232 3.3357-.3279 3.83s-1.6299.0436-3.5874-.8577l-.5065-.2332c-.5562-.2561-.8344-.3842-1.1292-.3842s-.573.1281-1.1292.3842l-.5065.2332c-1.95753.9013-2.9363 1.352-3.58742.8577-.65113-.4943-.54338-1.6062-.32789-3.83l.05575-.5753c.06123-.6319.09185-.9479.00074-1.2408-.0911-.293-.29362-.5298-.69865-1.0035l-.36875-.4312c-1.42532-1.6667-2.13798-2.5001-1.88927-3.2998.2487-.7998 1.29407-1.0363 3.3848-1.50938l.54089-.12238c.59412-.13442.89118-.20164 1.1297-.3827.23852-.18107.3915-.45549.69745-1.00434z"/>
        <path d="m4.86752 2.50058c.02999-.10578.21776-.10642.24846-.00084.1402.48211.40018 1.19473.7933 1.58521.39313.39048 1.10748.64563 1.59053.78257.10579.02999.10642.21776.00084.24846-.48211.1402-1.19473.40018-1.5852.7933-.39048.39313-.64564 1.10748-.78258 1.59053-.02999.10579-.21776.10642-.24846.00084-.1402-.48211-.40017-1.19473-.7933-1.5852-.39313-.39048-1.10748-.64564-1.59053-.78258-.10578-.02999-.10642-.21776-.00084-.24846.48211-.1402 1.19473-.40017 1.58521-.7933s.64563-1.10748.78257-1.59053z"/>
        <path clip-rule="evenodd"
              d="m19 3.25c.4142 0 .75.33579.75.75v.25h.25c.4142 0 .75.33579.75.75s-.3358.75-.75.75h-.25v.25c0 .41421-.3358.75-.75.75s-.75-.33579-.75-.75v-.25h-.25c-.4142 0-.75-.33579-.75-.75s.3358-.75.75-.75h.25v-.25c0-.41421.3358-.75.75-.75z"
              fill-rule="evenodd"/>
    </g>
</svg>

<?xml version="1.0" encoding="UTF-8" standalone="no"?>
<!DOCTYPE svg PUBLIC "-//W3C//DTD SVG 1.1//EN" "http://www.w3.org/Graphics/SVG/1.1/DTD/svg11.dtd">
<svg width="100%" height="100%" viewBox="0 0 800 800" version="1.1" xmlns="http://www.w3.org/2000/svg"
     xmlns:xlink="http://www.w3.org/1999/xlink" xml:space="preserve" xmlns:serif="http://www.serif.com/"
     style="fill-rule:evenodd;clip-rule:evenodd;stroke-linejoin:round;stroke-miterlimit:2;">
    <g transform="matrix(25.5374,0,0,25.5374,91.2937,95.1917)">
        <path d="M10.08,7.897C11.157,5.966 11.695,5 12.5,5C13.305,5 13.843,5.966 14.92,7.897L15.198,8.397C15.504,8.946 15.657,9.22 15.896,9.401C16.134,9.582 16.431,9.649 17.026,9.784L17.566,9.906C19.657,10.379 20.703,10.616 20.951,11.416C21.2,12.215 20.487,13.049 19.062,14.715L18.693,15.147C18.288,15.62 18.086,15.857 17.995,16.15C17.903,16.443 17.934,16.759 17.995,17.391L18.051,17.966C18.267,20.19 18.374,21.302 17.723,21.796C17.072,22.291 16.093,21.84 14.136,20.938L13.629,20.705C13.073,20.449 12.795,20.321 12.5,20.321C12.205,20.321 11.927,20.449 11.371,20.705L10.864,20.938C8.907,21.84 7.928,22.291 7.277,21.796C6.626,21.302 6.734,20.19 6.949,17.966L7.005,17.391C7.066,16.759 7.097,16.443 7.005,16.15C6.914,15.857 6.712,15.62 6.307,15.147L5.938,14.715C4.513,13.049 3.8,12.215 4.049,11.416C4.298,10.616 5.343,10.379 7.434,9.906L7.975,9.784C8.569,9.649 8.866,9.582 9.104,9.401C9.343,9.22 9.496,8.946 9.802,8.397L10.08,7.897ZM4.868,2.501C4.898,2.395 5.085,2.394 5.116,2.5C5.256,2.982 5.516,3.694 5.909,4.085C6.302,4.475 7.017,4.731 7.5,4.868C7.606,4.898 7.606,5.085 7.501,5.116C7.019,5.256 6.306,5.516 5.915,5.909C5.525,6.302 5.27,7.017 5.133,7.5C5.103,7.606 4.915,7.606 4.884,7.501C4.744,7.019 4.484,6.306 4.091,5.915C3.698,5.525 2.984,5.27 2.501,5.133C2.395,5.103 2.394,4.915 2.5,4.884C2.982,4.744 3.694,4.484 4.085,4.091C4.475,3.698 4.731,2.984 4.868,2.501ZM19,3.25C19.414,3.25 19.75,3.586 19.75,4L19.75,4.25L20,4.25C20.414,4.25 20.75,4.586 20.75,5C20.75,5.414 20.414,5.75 20,5.75L19.75,5.75L19.75,6C19.75,6.414 19.414,6.75 19,6.75C18.586,6.75 18.25,6.414 18.25,6L18.25,5.75L18,5.75C17.586,5.75 17.25,5.414 17.25,5C17.25,4.586 17.586,4.25 18,4.25L18.25,4.25L18.25,4C18.25,3.586 18.586,3.25 19,3.25Z"/>
    </g>
</svg>
